src/22/mimetypes/application-x-pem-key.svg

<?xml version="1.0" encoding="UTF-8" standalone="no"?>
<!-- Created with Inkscape (http://www.inkscape.org/) -->

<svg
   xmlns:dc="http://purl.org/dc/elements/1.1/"
   xmlns:cc="http://creativecommons.org/ns#"
   xmlns:rdf="http://www.w3.org/1999/02/22-rdf-syntax-ns#"
   xmlns:svg="http://www.w3.org/2000/svg"
   xmlns="http://www.w3.org/2000/svg"
   xmlns:sodipodi="http://sodipodi.sourceforge.net/DTD/sodipodi-0.dtd"
   xmlns:inkscape="http://www.inkscape.org/namespaces/inkscape"
   width="22"
   height="22"
   id="svg3869"
   version="1.1"
   inkscape:version="0.91 r13725"
   sodipodi:docname="application-x-pem-key.svg">
  <defs
     id="defs3871" />
  <sodipodi:namedview
     id="base"
     pagecolor="#ffffff"
     bordercolor="#666666"
     borderopacity="1.0"
     inkscape:pageopacity="0.0"
     inkscape:pageshadow="2"
     inkscape:zoom="21.124655"
     inkscape:cx="4.1413605"
     inkscape:cy="11.024378"
     inkscape:document-units="px"
     inkscape:current-layer="layer1"
     showgrid="true"
     fit-margin-top="0"
     fit-margin-left="0"
     fit-margin-right="0"
     fit-margin-bottom="0"
     inkscape:window-width="1360"
     inkscape:window-height="708"
     inkscape:window-x="0"
     inkscape:window-y="0"
     inkscape:window-maximized="1"
     inkscape:showpageshadow="false">
    <inkscape:grid
       type="xygrid"
       id="grid4132" />
    <sodipodi:guide
       position="2,20.000017"
       orientation="18,0"
       id="guide4138" />
    <sodipodi:guide
       position="2,2.0000174"
       orientation="0,18"
       id="guide4140" />
    <sodipodi:guide
       position="20,2.0000174"
       orientation="-18,0"
       id="guide4142" />
    <sodipodi:guide
       position="20,20.000017"
       orientation="0,-18"
       id="guide4144" />
    <sodipodi:guide
       position="3,19.000017"
       orientation="16,0"
       id="guide4146" />
    <sodipodi:guide
       position="3,3.0000174"
       orientation="0,16"
       id="guide4148" />
    <sodipodi:guide
       position="19,3.0000174"
       orientation="-16,0"
       id="guide4150" />
    <sodipodi:guide
       position="19,19.000017"
       orientation="0,-16"
       id="guide4152" />
  </sodipodi:namedview>
  <metadata
     id="metadata3874">
    <rdf:RDF>
      <cc:Work
         rdf:about="">
        <dc:format>image/svg+xml</dc:format>
        <dc:type
           rdf:resource="http://purl.org/dc/dcmitype/StillImage" />
        <dc:title />
      </cc:Work>
    </rdf:RDF>
  </metadata>
  <g
     inkscape:label="Capa 1"
     inkscape:groupmode="layer"
     id="layer1"
     transform="translate(-326,-534.3622)">
    <path
       style="fill:#51db51;fill-opacity:1"
       d="M 13.734375 3.0214844 C 10.836845 3.0214844 8.4882812 5.3686019 8.4882812 8.2636719 C 8.4882812 9.0505519 8.6663325 9.7934506 8.9765625 10.462891 L 8.0800781 11.525391 L 8.0019531 12.521484 C 7.9939631 12.528884 7.0234375 12.558594 7.0234375 12.558594 L 6.5253906 12.919922 C 6.5253906 12.919922 6.5274375 14.006787 6.5234375 13.992188 L 5.4550781 14.009766 L 5.0039062 14.525391 L 4.9941406 15.5 C 4.9941406 15.5 4.0719156 15.439491 3.9785156 15.525391 L 3.9804688 15.527344 C 3.3914787 16.069864 2.9941406 16.457031 2.9941406 16.457031 L 2.9980469 19.005859 L 3.4980469 19.003906 L 10.291016 12.210938 C 10.747683 12.608798 11.276835 12.922077 11.851562 13.144531 C 12.437328 13.372465 13.069976 13.505859 13.736328 13.505859 C 16.634368 13.505859 18.982422 11.157309 18.982422 8.2617188 C 18.982422 5.3666387 16.633505 3.0207944 13.734375 3.0214844 z M 14.736328 5.5175781 C 15.701998 5.5175781 16.484375 6.3018881 16.484375 7.2675781 C 16.484375 8.2332581 15.701998 9.015625 14.736328 9.015625 C 13.770138 9.015625 12.986328 8.2332581 12.986328 7.2675781 C 12.986328 6.3018881 13.770138 5.5175781 14.736328 5.5175781 z "
       transform="translate(326,534.3622)"
       id="path5" />
    <path
       style="fill:#51db51;fill-opacity:1;opacity:0.5"
       d="M 14.736328 5.5175781 C 13.770138 5.5175781 12.986328 6.3018881 12.986328 7.2675781 C 12.986328 8.2332581 13.770138 9.015625 14.736328 9.015625 C 15.701998 9.015625 16.484375 8.2332581 16.484375 7.2675781 C 16.484375 6.3018881 15.701998 5.5175781 14.736328 5.5175781 z M 14.736328 6.5175781 C 15.149938 6.5175781 15.484375 6.8534581 15.484375 7.2675781 C 15.484375 7.6811981 15.149988 8.015625 14.736328 8.015625 C 14.322648 8.015625 13.986328 7.6811981 13.986328 7.2675781 C 13.986328 6.8534581 14.322648 6.5175781 14.736328 6.5175781 z M 10.291016 12.210938 L 3.4941406 19.007812 L 5.9921875 19.007812 L 11.925781 13.179688 C 11.320801 12.956357 10.768126 12.626607 10.291016 12.210938 z "
       transform="translate(326,534.3622)"
       id="path7" />
  </g>
</svg>

<svg xmlns="http://www.w3.org/2000/svg" width="22" height="22"><g fill="#51db51"><path d="M13.734 3.021a5.244 5.244 0 0 0-5.246 5.243c0 .787.178 1.53.489 2.199l-.897 1.062-.078.996c-.008.008-.979.038-.979.038l-.498.36s.002 1.088-.002 1.073l-1.068.018-.451.515-.01.975s-.922-.06-1.015.025l.001.002c-.589.543-.986.93-.986.93l.004 2.549.5-.002 6.793-6.793a5.26 5.26 0 0 0 1.56.934 5.18 5.18 0 0 0 1.885.36 5.243 5.243 0 0 0-.002-10.484zm1.002 2.497a1.75 1.75 0 1 1-.002 3.498 1.75 1.75 0 0 1 .002-3.498z"/><path d="M14.736 5.518a1.75 1.75 0 1 0 0 0zm0 1a.749.749 0 1 1-.001 1.497.749.749 0 0 1 .001-1.497zm-4.445 5.693l-6.797 6.797h2.498l5.934-5.828a5.262 5.262 0 0 1-1.635-.97z" opacity=".5"/></g></svg>
